!!!!SEGMENT: pl-wtm--a-43-185-99--001-004_fitelberg-grzegorz--piec-piesni-op-21-no-4-noca-w-ciemnosciach.krn
!!!cenid: 19xx:94
!!!COM: Fitelberg, Grzegorz
!!!COM-rismID: pe41023683
!!!CDT: 1879-1953
!!!CNT: Polish
!!!GTL: Pięć pieśni Op. 21
!!!OTL: No. 4. Nocą/W ciemnościach
!!!OMV: 004
!!!PDT:
!!!AGN: Secular; Song
!!!YEC: Copyright 2022 Narodowy Instytut Fryderyka Chopina (https://polishscores.org)
!!!YEM: License CC-BY-4.0 (https://creativecommons.org/licenses/by/4.0)
!!!SMS-siglum: PL-Wtm
!!!SMS-shelfmark: A.43.185/99
!!!SMS-variant:
!!!SMS-altvar:
!!!SMS-shelfwork: 001-004 G
!!!NIFC-rismSourceID: 1001162746
!!!NIFC-rismChildID: 1001162746
!!!NIFC-islandoraID: pl-wtm:43141
!!!URL-pdf-islandora: https://repozytorium.nifc.pl/islandora/object/pl-wtm%3A43141/datastream/PDF/view
!!!URL-scan: https://polish.musicsources.pl/pl/lokalizacje/galeria/druki-muzyczne/22420/6 @EN{Scan on Polish Music Sources Website} @PL{Skany w portalu Dziedzictwo Muzyki Polskiej w otwartym dostępie}
!!!IIIF:
!!!ONB-nifc:
!!!OMD: Andante.
!!!AIN: 1 piano 1 vox
!!!key: none
**kern	**kern	**dynam	**kern	**text	**text	**dynam
*part2	*part2	*part2	*part1	*part1	*part1	*part1
*staff3	*staff2	*	*staff1	*staff1	*staff1	*
*ICklav	*ICklav	*	*ICvox	*	*	*
*Ipiano	*Ipiano	*	*Ivox	*	*	*
*I"Klavier	*I"Klavier	*	*I"Singstimme.	*	*	*
*clefF4	*clefG2	*	*clefG2	*	*	*
*k[]	*k[]	*	*k[]	*	*	*
*a-:	*a-:	*	*a-:	*	*	*
*M3/4	*M3/4	*	*M3/4	*	*	*
=1	=1	=1	=1	=1	=1	=1
!	!LO:TX:b:i:t=dolce	!LO:DY:rj	!LO:TX:a:t=Andante.	!	!	!
8c-X\L 8e-X	8cc-X\L 8ee-X	p	8r	.	.	.
!	!	!	!	!	!	!LO:DY:a
(<(<8c-\J [>8e-	(<(<8cc-\J [>8ee-	.	8ee-X\	Es	W ciem-	p
8B-X\L)) 8d 8e-]	8b-X\L)) 8dd 8ee-]	.	8ee-\	klagt	-no-	.
(<(<8B-\J 8d [>8e-	(<(<8b-\J 8dd [>8ee-	.	8ee-\	im	-ściach	.
8An\L)) 8d-X 8e-]	8an\L)) 8dd-X 8ee-]	.	8ee-\	dun-	co-	.
(<(<8A\J 8d- [>8e-	(<[<8a\J 8dd- [>8ee-	.	8ee-\	-keln	-sik	.
=2	=2	=2	=2	=2	=2	=2
*^	*^	*	*	*	*	*
*	*	*	*	*^	*	*	*	*
!	!	!	!	!LO:HP:a	!LO:HP:a	!	!	!	!
8A\L)) 8c 8e-]	4ryy	8a\L]) 8cc 8ee-]	4ryy	<	<	8ee-X\	ir-	skar-	.
[<8A\J [<8c [<8en	.	[<8a\J [<8cc [<8een	.	.	.	8a/	-gend-	-ży	.
2f#X^>/	8A\L] 8c] 8e]	2ff#X^/	2a\] 2cc] 2ee]	[	[	2a/	-wo.	się.	.
.	(>8c-X\J 8e-X	.	.	>	.	.	.	.	.
.	8B-X\L 8d	.	.	.	.	.	.	.	.
.	8B--\J) 8d-X	.	.	]	.	.	.	.	.
*	*	*	*	*v	*v	*	*	*	*
*v	*v	*	*	*	*	*	*	*
=3	=3	=3	=3	=3	=3	=3	=3
8A-X\L 8c	(4f#X/ 4ff#X	[2.cc\ [2.ee	]	8r	.	.	.
(<(<8A-\J [>8c	.	.	.	8cc\	Ich	I	.
8G\L)) 8B 8c]	4g/ 4gg	.	.	8cc\	möch-	chciał-	.
(>(<8G\J [<8B 8c	.	.	.	8cc\	-te	-bym	.
8F#X\L)) 8B] 8c-X	4g#X/ 4gg#X	.	.	8cc\	wis-	wie-	.
(<[<8F#\J 8B [>8c-	.	.	.	8cc\	-sen	-dzieć,	.
!!LO:LB:g=original
=4	=4	=4	=4	=4	=4	=4	=4
*^	*	*^	*	*	*	*	*
(>8F#y\L_<) [<8A 8c-]	4ryy	2.a/) 2.aa	8cc\L]	4ee/]	<	8cc\	was	czyj	.
8F#\J_<) 8A_< [<8c#X	.	.	(8cc#X\J	.	[	8d#X/	es	to	.
2d#X^/	8F#\L] 8A] 8c#]	.	2cc#\)	2dd#X^/	.	2d#/	ist.	żal.	.
.	(>8A-X\J 8cn	.	.	.	>	.	.	.	.
.	8G\L 8B	.	.	.	.	.	.	.	.
.	8G-X\J) 8B-X	.	.	.	]	.	.	.	.
*	*	*	*v	*v	*	*	*	*	*
=5	=5	=5	=5	=5	=5	=5	=5	=5
[2.c#X/	8F\L 8A	([<2.a/ [2.aa	(>4dd#X\	<	4r	.	.	.
.	((8F\J 8A	.	.	.	.	.	.	.
.	8F-X\L)) 8A-X	.	4ee\	.	4r	.	.	.
.	((8F-\J 8A-	.	.	.	.	.	.	.
.	8E-X\L)) 8G	.	4ee#\	.	4cc#X\	Der	To	.
.	((8E-\J 8G	.	.	.	.	.	.	.
=6	=6	=6	=6	=6	=6	=6	=6	=6
4c#/]	8E-y\)) 8F#X	4a/] 4aa]	[<2.ff#X\)	[	(2cc#X\	Wind	wia-	.
.	4E-X\ 4F#	.	.	.	.	.	.	.
(4c#X/	.	[<2a#X/ [>2aa#X	.	.	.	.	.	.
.	4E-\ 4F#	.	.	.	.	.	.	.
4cn/	.	.	.	>	4ccn\)	.	-ter	.
.	[<8E-\ [>8F#	.	.	.	.	.	.	.
=7	=7	=7	=7	=7	=7	=7	=7	=7
4B/	8E-\] 8F#]	2a#/] 2aa#]	2.ff#\]	.	4b\	klagt	po-	.
.	4E-X\ 4F#X	.	.	.	.	.	.	.
4B-X/	.	.	.	.	4b-X\	wohl	-noś	.
.	4E-\ 4F#	.	.	.	.	.	.	.
4A/)	.	4b/ 4bb	.	.	4a/	die	się	.
!	!LO:TX:t=P:problem=mixed beam	!	!	!	!	!	!	!
.	(>8DDD/L 8DD	.	.	]]	.	.	.	.
*v	*v	*	*	*	*	*	*	*
*	*v	*v	*	*	*	*	*
=8	=8	=8	=8	=8	=8	=8
!	!	!	!	!	!	!LO:HP:a
8D~>\J) 8A 8d	8cc^>/) 8ff#X 8ccc	pp	2dd\	Nacht	ża-	>
*clefG2	*	*	*	*	*	*
!	!LO:TX:b:i:t=dolcissimo	!	!	!	!	!
(8e#X\L 8cc	(8dd\L 8gg#X 8eee	.	.	.	.	.
8f#X\ 8b	8dd\ 8aa 8ddd	.	.	.	.	.
8g#X\ 8een	8ee#X\ 8ccc	.	.	.	.	.
8a\ 8ee	8ff#X\ 8bb	.	[4dd\	an.	-li.	]]
8bn\ 8ee-X	8ff#\ 8bb-X	.	.	.	.	.
!!LO:LB:g=original
=9	=9	=9	=9	=9	=9	=9
8cc\J) 8dd	8ff#X\J) 8aa	.	4dd\]	.	.	.
*	*8va	*	*	*	*	*
(8ee#X\L 8ccc	(8ddd\L 8ggg#X 8eeee	.	.	.	.	.
8ff#X\ 8bb	8ddd\ 8aaa 8dddd	.	4r	.	.	.
8gg#X\ 8eeen	8eee#X\ 8cccc	.	.	.	.	.
8aa\ 8eee	8fff#X\ 8bbb	.	4r	.	.	.
8bbn\J 8eee-X	8fff#\J 8bbb-X	.	.	.	.	.
=10	=10	=10	=10	=10	=10	=10
*M2/4	*M2/4	*	*M2/4	*	*	*
2ccc\) 2ddd	2fff#X\) 2aaa	.	2r	.	.	.
*	*X8va	*	*	*	*	*
=11	=11	=11	=11	=11	=11	=11
!	!LO:TX:b:i:t=espressivo	!	!	!	!	!
((2e#X^/ 2cc	[2dd^\ [2gg#X [2eee	mp >	4r	.	.	.
!	!	!	!	!	!	!LO:DY:a
.	.	.	4cc\	Der	Lecz	p
=12	=12	=12	=12	=12	=12	=12
2f#X/)) 2b	2dd\] 2gg#] 2eee]	]]	4b\	Wind	to	.
.	.	.	4a/	klagt	nie	.
*clefF4	*	*	*	*	*	*
=13	=13	=13	=13	=13	=13	=13
[2G#X^<\ [2en	((2e#X^>/ 2cc	mp >	4g#X/	a-	wia-	.
.	.	.	4gn/	-ber	-tru	.
=14	=14	=14	=14	=14	=14	=14
2G#\] 2e]	2f#X/)) 2b	.	4f#X/	nicht	chy-	.
.	.	]]	4e/	so	-ba	.
=15	=15	=15	=15	=15	=15	=15
*M3/4	*M3/4	*	*M3/4	*	*	*
((2.BBn/ 2.D#X	((2.F/ 2.B-X	pp >	2d#X/	nah.	jęk.	.
.	.	.	4r	.	.	.
!!LO:LB:g=original
=16	=16	=16	=16	=16	=16	=16
*M5/4	*M5/4	*	*M5/4	*	*	*
*^	*	*	*	*	*	*
*Xtuplet	*	*	*	*	*	*	*
12C\L)) 12D	2ryy	4F/)) 4A	]	4r	.	.	.
(12CC\	.	.	.	.	.	.	.
[12C\J	.	.	.	.	.	.	.
!	!	!LO:TX:a:i:t=molto espressivo	!	!	!	!	!LO:HP:a
12C\L]	.	(4d#X/	mf <	4d#X/	Der	Coś	<
12F#X\	.	.	.	.	.	.	.
12A\J	.	.	.	.	.	.	.
4d#X/)	12d#\L	2cc#X\	.	2cc#X\	Wind	wzdy-	[
.	(>12CC#X\	.	.	.	.	.	.
.	12C#X\J	.	[	.	.	.	.
6ryy	12G\L	.	.	.	.	.	.
.	12B-X\	.	.	.	.	.	.
6e/	12e\J)	.	.	.	.	.	.
!	!	!	!	!	!	!	!LO:HP:a
.	12r	4ccn\)	>	4ccn\	klagt	-cha	>
6ryy	(>12DD\L	.	.	.	.	.	.
.	[>12D\J	.	]]	.	.	.	.
*v	*v	*	*	*	*	*	*
=17	=17	=17	=17	=17	=17	=17
*M4/4	*M4/4	*	*M4/4	*	*	*
*^	*^	*	*	*	*	*
12D\L]	4ryy	(4f/	4ryy	<	4b\	im-	tu	.
12G#X\	.	.	.	.	.	.	.	.
12B\J	.	.	.	.	.	.	.	.
4f/)	12f\L	2ee-X\	2ryy	.	4b-X\	-mer	w po-	.
.	(>12EE-X\	.	.	[	.	.	.	.
.	12E-X\J	.	.	.	.	.	.	.
12A\L	4ryy	.	.	.	4a/	in	-bli-	.
12c\	.	.	.	.	.	.	.	.
N[12f#X>\J)	.	.	.	>	.	.	.	.
12r	4ryy	4dd/)	(4f#\N]	.	4a-X/	der	-żu	]]
(12FFF-X/L	.	.	.	.	.	.	.	.
12FF-X/J	.	.	.	]]	.	.	.	.
*v	*v	*	*	*	*	*	*	*
*	*v	*v	*	*	*	*	*
=18	=18	=18	=18	=18	=18	=18
*M3/4	*M3/4	*	*M3/4	*	*	*
*^	*^	*	*	*	*	*
*	*	*	*	*^	*	*	*	*
12F-X\L	4ryy	4r	4g\)	.	.	4g/	Nacht.	mem.	.
12B-X\	.	.	.	.	.	.	.	.	.
12d-X\J)	.	.	.	.	.	.	.	.	.
!	!	!	!	!LO:DY:b:rj	!	!	!	!	!
!	!	!LO:TX:b:i:t=molto espressivo	!	!LO:HP:a	!LO:HP:a	!	!	!	!
(4G/	12G\L	(>4g/ 4gg	2ryy	f <	<	4r	.	.	.
.	12B-\	.	.	.	.	.	.	.	.
.	12d-\J	.	.	.	.	.	.	.	.
!	!LO:TX:t=P:problem=mixed beam	!	!	!	!	!	!	!	!
(4f/)	12f\L	[>4ff/ [>4fff	.	[	.	4r	.	.	.
.	(<12EEE-X/	.	.	.	.	.	.	.	.
.	12EE-X/J	.	.	.	[[	.	.	.	.
*	*	*	*	*v	*v	*	*	*	*
!!LO:PB:g=original
=19	=19	=19	=19	=19	=19	=19	=19	=19
*	*	*	*^	*	*	*	*	*
!	!	!	!	!	!LO:DY:rj	!	!	!	!LO:DY:a
(2f/)	2.E-X\) 2.An	2ff/] 2fff]	4c^\ 4cc	2.f#X\	ff	8r	.	.	f
!	!	!	!	!	!	!LO:TX:a:i:t=con passione	!	!	!
.	.	.	.	.	.	8cc\	In	Czyż	.
!	!	!	!	!	!	!	!	!	!LO:HP:a
.	.	.	4.Bn^\ 4.bn	.	>	4.bn\	mei-	krew	<
4en/)	.	4een/) 4eeen	.	.	.	.	.	.	.
.	.	.	8c^\ 8cc	.	]]	8cc\	-nen	mi	[[
*	*	*	*v	*v	*	*	*	*	*
=20	=20	=20	=20	=20	=20	=20	=20	=20
!	!	!	!	!	!	!	!	!LO:HP:a
12F-X~\L 12B-X	4ryy	4r	4d-X^<\ 4g 4dd-X	.	2dd-X\	Oh-	w u-	>
(12FF-X\	.	.	.	<	.	.	.	.
12F-\J	.	.	.	.	.	.	.	.
(4G/	12G\L	(>4g/ 4gg	2ryy	.	.	.	.	.
.	12B-\	.	.	.	.	.	.	.
.	12d-X\J	.	.	.	.	.	.	.
!LO:TX:t=P:problem=mixed beam	!	!	!	!	!	!	!	!
[4f/)	12f\L)	[>4ff/ [>4fff	.	.	4g/	-ren	-szach	]
.	&(<12EEE-X/	.	.	.	.	.	.	.
.	12EE-X/J	.	.	[[	.	.	.	.
=21	=21	=21	=21	=21	=21	=21	=21	=21
*	*^	*	*^	*	*	*	*	*
(2f/]	4c^\	2.E-X\&) 2.An	2ff/] 2fff]	4cc^\	2.f#X\ 2.ff#X	>	(4cc\	klagt	tę-	<
.	4.Bn^\	.	.	4.bn^\	.	.	4.bn\)	.	.	.
4en/)	.	.	4een/) 4eeen	.	.	.	.	.	.	.
.	8c^\	.	.	8cc^\	.	]]	8cc\	mein	-tni	[[
*	*	*	*	*v	*v	*	*	*	*	*
=22	=22	=22	=22	=22	=22	=22	=22	=22	=22
!	!	!	!LO:TX:b:i:t=dolce	!	!	!	!	!	!
4rf	2ryy	2.E-X\ 2.B-X 2.d-X	4r	2.f#X\ 2.b-X 2.dd-X 2.ff#X	p	2dd-X\	Blut	w głós?	>
2fn/	.	.	(2ffn/ 2fffn	.	.	.	.	.	.
!	!	!	!	!	!LO:HP:t=sempre dim._:ext=s:ext=ud	!	!	!	!
.	(>4EEE-X/	.	.	.	>	4r	.	.	]
=23	=23	=23	=23	=23	=23	=23	=23	=23	=23
*	*	*	*	*	*	*^	*	*	*
4rf	2ryy	2.E-X\) 2.Bn 2.dn	4r	2.f#X\ 2.bn 2.ddn 2.ff#X	.	4r	4ryy	.	.	.
!	!	!	!	!	!	!	!	!	!	!LO:DY:a
!	!	!	!	!	!	!	!	!	!	!LO:HP:a
2f-X/	.	.	2ff-X/ 2fff-X	.	.	2f#X/	4f#\	mein	Czy-	p >
.	(4EE-X/	.	.	.	.	.	4f#\	.	-li	.
*	*	*	*	*	*	*v	*v	*	*	*
=24	=24	=24	=24	=24	=24	=24	=24	=24	=24
*	*	*	*	*^	*	*	*	*	*
4rf	[2.E\	(<2Bn\)	4r	[2.g\ [>2.gg	(<2bn\	.	2.g/	Blut	krew	]]
2e-X/	.	.	2ee-X/) 2eee-X	.	.	.	.	.	.	.
.	.	(4c\)	.	.	4cc\)	.	.	.	.	.
*	*v	*v	*	*	*	*	*	*	*	*
*	*	*	*v	*v	*	*	*	*	*
!!LO:LB:g=original
=25	=25	=25	=25	=25	=25	=25	=25	=25
!	!	!	!	!	!	!	!	!LO:HP:a:t=dim._:ext=ud
(2d-X/)	2.E\_	[<(2dd-X\	2.g\_< 2.gg_>	.	[2.g/	wohl.	to.	>
([<4d-X/) 4dn	.	[4dd-X\)] 4ddn	.	.	.	.	.	.
=26	=26	=26	=26	=26	=26	=26	=26	=26
2.e/)	4E\] 4d-]	4g/] 4dd-] 4gg]	2.ee-X\	.	4g/]	.	.	.
.	4r	4r	.	.	4r	.	.	.
.	4r	4r	.	]]	4r	.	.	]]
*v	*v	*	*	*	*	*	*	*
*	*v	*v	*	*	*	*	*
=27	=27	=27	=27	=27	=27	=27
!LO:TX:a:i:t=dolce	!	!LO:DY:rj	!LO:TX:a:i:t=Tempo	!	!	!LO:DY:a
8c-X\L 8e-X	2.ryy	p	8r	.	.	p
(<(<8c-\J [>8e-	.	.	8ee-X\	Mein	Lecz	.
8B-X\L)) 8d 8e-]	.	.	8ee-\	Blut	krwi	.
(<(<8B-\J 8d [>8e-	.	.	8ee-\	klingt	mej	.
!LO:TX:t=P:problem=kasownik bn po nucie?	!	!	!	!	!	!
8An\L)) 8d-X 8e-]	.	.	8ee-\	a-	tę-	.
(<[<8A\J 8d- [>8e-	.	.	8ee-\	-ber	-tno	.
=28	=28	=28	=28	=28	=28	=28
*^	*	*	*	*	*	*
(8A\L]) [8c 8e-]	4ryy	4r	.	8ee-X\	nicht	do-	.
[<8A\J) 8c_< [<8en	.	.	.	8a/	so	-brze	.
8A\L] 8c] 8e]	2f#X^>/	(4en^/ 4een	.	2a/	fremd.	znam.	.
(8c-X\J 8e-X	.	.	.	.	.	.	.
8B-X\L 8d	.	4e#X/ 4ee#X	.	.	.	.	.
8B--\J) 8d-X	.	.	.	.	.	.	.
*v	*v	*	*	*	*	*	*
=29	=29	=29	=29	=29	=29	=29
8A-X\L 8c 8en	4f#X\ 4ff#X	.	8r	.	.	.
(<(<8A-\J [>8c [>8e	.	.	8cc\	Mein	Spo-	.
8G\L)) 8B 8c] 8e]	4g\ 4gg	.	8cc\	Blut	-koj-	.
(<(<8G\J 8B [>8c [>8e	.	.	8cc\	ist	-nie	.
8F#X\L)) 8B-X 8c] 8e]	4g#X\ 4gg#X	.	8cc\	ru-	pły-	.
(<[<8F#\J 8B- [>8c [>8e	.	.	8cc\	-hig	-nie	.
!!LO:LB:g=original
=30	=30	=30	=30	=30	=30	=30
*^	*^	*	*	*	*	*
((8F#\L]) [8A 8c] 8e_	4ryy	[<2.a/) [2.aa	4r	<	8cc\	wie	w ży-	.
[<8F#y\J)) 8A_< [<8c#X 8e]	.	.	.	.	8d#X/	die	-łach	.
8F#\L] 8A] 8c#]	2d#X^>/	.	(>4cc#X\	[	2d#/	Nacht.	mych...	.
(8A-X\J 8cn	.	.	.	>	.	.	.	.
8G\L 8B	.	.	4cc##X\	.	.	.	.	.
8G-X\J) 8B-X	.	.	.	]	.	.	.	.
*v	*v	*	*	*	*	*	*	*
=31	=31	=31	=31	=31	=31	=31	=31
8F\L 8A 8c#X	2.a/] 2.aa]	4dd#X\	<	8r	.	.	.
!	!	!	!	!	!	!	!LO:HP:a:t=molto cresc._:ext=s:ext=ud
((8F\J 8A [8c#	.	.	.	8cc#X\	Ich	Czy-	<
8F-X\L)) 8A-X 8c#]	.	4ee\	.	4cc#\	glaub,	-je-	.
((8F-\J 8A- [8c#	.	.	.	.	.	.	.
8E-X\L)) 8G 8c#]	.	4ee#X\)	.	4cc#\	ein	-goś	.
(((8E-\J 8G 8c#	.	.	.	.	.	.	.
*	*v	*v	*	*	*	*	*
=32	=32	=32	=32	=32	=32	=32
*M2/4	*M2/4	*	*M2/4	*	*	*
*	*^	*	*	*	*	*
8D\))) 8F#X 8cn	2b-X/ 2bb-X	2dd\ 2ff#X	.	4dd\	Herz	sły-	.
4D\ 4F# 4c	.	.	.	.	.	.	.
.	.	.	.	4ee\	klagt	-szę	.
8D\ 8F# 8c	.	.	.	.	.	.	.
*	*v	*v	*	*	*	*	*
=33	=33	=33	=33	=33	=33	=33
*M4/4	*M4/4	*	*M4/4	*	*	*
*^	*^	*	*	*	*	*
!	!	!	!	!	!	!	!	!LO:DY:a:rj
!	!	!	!	!	!LO:TX:a:i:t=espress.	!	!	!LO:DY:a
4r	1AAA-X 1AA-X	1dd-X 1ffn	((2b--^>\ 2bb--	[ f >	4.ff\	ir-	ser-	[ f >
!LO:TX:a:i:t=espressivo	!	!	!	!	!	!	!	!
(<4F/	.	.	.	.	.	.	.	.
.	.	.	.	.	8dd-X\	-gend-	-ca	.
4G-X/	.	.	2a-X\)) 2aa-X	.	2a-X/	-wo,	jęk.	]]
4Gn/	.	.	.	.	.	.	.	.
*v	*v	*	*	*	*	*	*	*
=34	=34	=34	=34	=34	=34	=34	=34
*	*	*^	*	*	*	*	*
1A-X)	4r	4ryy	4ryy	] p	1r	.	.	.
!	!LO:TX:a:i:t=espressivo	!	!	!	!	!	!	!
.	(4f/	[4d-X\	2.d-\ 2.f	<	.	.	.	.
.	4g-X/	8d-\L]	.	.	.	.	.	.
.	.	[8c\J	.	.	.	.	.	.
.	4gn/	4c\_	.	[[	.	.	.	.
*	*	*v	*v	*	*	*	*	*
!!LO:LB:g=original
=35	=35	=35	=35	=35	=35	=35	=35
(1EEEn 1EEn	1dn) 1f 1g#X	2c\]	pp <	1r	.	.	.
!	!LO:TX:a:i:t=dolce	!	!	!	!	!	!
.	.	2c\ 2cc	[[	.	.	.	.
=36	=36	=36	=36	=36	=36	=36	=36
1BBB-X)	((2c-X^>/ [2e-X [2gn 2cc-X	2ryy	>	4r	.	.	.
!	!	!	!	!	!	!	!LO:DY:a
!	!	!	!	!LO:TX:a:i:t=molto espress.	!	!	!LO:HP:a
.	.	.	.	4g/	ein	to	p <
.	2B-X/)) 2e-] 2g] 2b-X	(4e-\	.	4a-X/	Herz	chy-	.
.	.	4dn\)	]]	4an/	klagt	-ba	[[
*	*v	*v	*	*	*	*	*
=37	=37	=37	=37	=37	=37	=37
!	!	!	!	!	!	!LO:HP:a
1EEE-X~ 1EE-X	1B-X~> 1d-X 1f-X 1g	pp	4.b-X\	ir-	ser-	>
.	.	.	8f-X/	-gend-	-ca	.
.	.	.	2f-/	-wo.	jęk	]]
*clefG2	*	*	*	*	*	*
=38	=38	=38	=38	=38	=38	=38
1dn~ 1f 1a-X	1cc-X~ 1ff 1aa-X 1ccc-X	.	1r	.	.	.
*clefF4	*	*	*	*	*	*
=39	=39	=39	=39	=39	=39	=39
1EEE-X~ 1EE-X	1d-X~> 1f-X 1g 1b-X	.	1r	.	.	.
*clefG2	*	*	*	*	*	*
=40	=40	=40	=40	=40	=40	=40
*	*^	*	*	*	*	*
1dn~ 1f 1a-X 1cc-X	(2ddd-X/	1ff 1aa-X	>	1r	.	.	.
.	2ccc-X/)	.	]]	.	.	.	.
*	*v	*v	*	*	*	*	*
*clefF4	*clefF4	*	*	*	*	*
=41	=41	=41	=41	=41	=41	=41
1EEE-X 1EE-X	1BB-X~ 1E-X 1G 1B-X	pp	1r	.	.	.
==	==	==	==	==	==	==
*-	*-	*-	*-	*-	*-	*-
!!!system-decoration: s1{(s2,s3)}
!!!RDF**kern: < = below
!!!RDF**kern: > = above
!!!RDF**kern: N = linked
!!!ENC: Andrzej Gręziak
!!!END: 2023-10-06
!!!EED: Marta Chmielewska
!!!EEV: 2023-10-18
